; G-Code generated by Simplify3D(R) Version 4.0.1
; Oct 20, 2018 at 9:52:29 PM
; Settings Summary
;   processName,Process1
;   applyToModels,CableSupport
;   profileName,Creality CR-10 (modified)
;   profileVersion,2018-01-19 08:00:00
;   baseProfile,
;   printMaterial,PLA
;   printQuality,High
;   printExtruders,
;   extruderName,Primary Extruder
;   extruderToolheadNumber,0
;   extruderDiameter,0.4
;   extruderAutoWidth,0
;   extruderWidth,0.4
;   extrusionMultiplier,1
;   extruderUseRetract,1
;   extruderRetractionDistance,1
;   extruderExtraRestartDistance,0
;   extruderRetractionZLift,0.2
;   extruderRetractionSpeed,2400
;   extruderUseCoasting,0
;   extruderCoastingDistance,0.2
;   extruderUseWipe,0
;   extruderWipeDistance,5
;   primaryExtruder,0
;   layerHeight,0.2
;   topSolidLayers,6
;   bottomSolidLayers,4
;   perimeterOutlines,4
;   printPerimetersInsideOut,1
;   startPointOption,2
;   startPointOriginX,0
;   startPointOriginY,0
;   sequentialIslands,0
;   spiralVaseMode,0
;   firstLayerHeightPercentage,200
;   firstLayerWidthPercentage,100
;   firstLayerUnderspeed,0.2
;   useRaft,0
;   raftExtruder,0
;   raftTopLayers,3
;   raftBaseLayers,1
;   raftOffset,10
;   raftSeparationDistance,0.1
;   raftTopInfill,100
;   aboveRaftSpeedMultiplier,0.3
;   useSkirt,1
;   skirtExtruder,0
;   skirtLayers,1
;   skirtOutlines,1
;   skirtOffset,4
;   usePrimePillar,0
;   primePillarExtruder,999
;   primePillarWidth,12
;   primePillarLocation,7
;   primePillarSpeedMultiplier,1
;   useOozeShield,0
;   oozeShieldExtruder,999
;   oozeShieldOffset,2
;   oozeShieldOutlines,1
;   oozeShieldSidewallShape,1
;   oozeShieldSidewallAngle,30
;   oozeShieldSpeedMultiplier,1
;   infillExtruder,0
;   internalInfillPattern,Rectilinear
;   externalInfillPattern,Rectilinear
;   infillPercentage,25
;   outlineOverlapPercentage,20
;   infillExtrusionWidthPercentage,100
;   minInfillLength,5
;   infillLayerInterval,1
;   internalInfillAngles,45,-45
;   overlapInternalInfillAngles,1
;   externalInfillAngles,45,-45
;   generateSupport,0
;   supportExtruder,0
;   supportInfillPercentage,20
;   supportExtraInflation,0
;   supportBaseLayers,0
;   denseSupportExtruder,0
;   denseSupportLayers,3
;   denseSupportInfillPercentage,70
;   supportLayerInterval,1
;   supportHorizontalPartOffset,0.3
;   supportUpperSeparationLayers,1
;   supportLowerSeparationLayers,1
;   supportType,0
;   supportGridSpacing,4
;   maxOverhangAngle,46
;   supportAngles,0
;   temperatureName,Primary Extruder,Heated Bed
;   temperatureNumber,0,0
;   temperatureSetpointCount,1,1
;   temperatureSetpointLayers,1,1
;   temperatureSetpointTemperatures,220,60
;   temperatureStabilizeAtStartup,1,1
;   temperatureHeatedBed,0,1
;   temperatureRelayBetweenLayers,0,0
;   temperatureRelayBetweenLoops,0,0
;   fanLayers,1,2
;   fanSpeeds,0,100
;   blipFanToFullPower,0
;   adjustSpeedForCooling,1
;   minSpeedLayerTime,8
;   minCoolingSpeedSlowdown,20
;   increaseFanForCooling,0
;   minFanLayerTime,45
;   maxCoolingFanSpeed,100
;   increaseFanForBridging,0
;   bridgingFanSpeed,100
;   use5D,1
;   relativeEdistances,0
;   allowEaxisZeroing,1
;   independentExtruderAxes,0
;   includeM10123,0
;   stickySupport,1
;   applyToolheadOffsets,0
;   gcodeXoffset,0
;   gcodeYoffset,0
;   gcodeZoffset,0
;   overrideMachineDefinition,1
;   machineTypeOverride,0
;   strokeXoverride,300
;   strokeYoverride,300
;   strokeZoverride,400
;   originOffsetXoverride,0
;   originOffsetYoverride,0
;   originOffsetZoverride,0
;   homeXdirOverride,-1
;   homeYdirOverride,-1
;   homeZdirOverride,-1
;   flipXoverride,1
;   flipYoverride,-1
;   flipZoverride,1
;   toolheadOffsets,0,0|0,0|0,0|0,0|0,0|0,0
;   overrideFirmwareConfiguration,1
;   firmwareTypeOverride,RepRap (Marlin/Repetier/Sprinter)
;   GPXconfigOverride,r2
;   baudRateOverride,115200
;   overridePrinterModels,1
;   printerModelsOverride
;   startingGcode,G28 ; home all axes,G1 Z5 F3000 ; lift,G1 X5 Y10 F1500 ; move to prime,G1 Z0.4 F3000 ; get ready to prime,G92 E0 ; reset extrusion distance,G1 Y80 E10 F600 ; prime nozzle,G1 Y100 F5000 ; quick wipe
;   layerChangeGcode,
;   retractionGcode,
;   toolChangeGcode,
;   endingGcode,G28 X0 ; home x axis,M106 S0 ; turn off cooling fan,M104 S0 ; turn off extruder,M140 S0 ; turn off bed,M84 ; disable motors
;   exportFileFormat,gcode
;   celebration,0
;   celebrationSong,Random Song
;   postProcessing,
;   defaultSpeed,6000
;   outlineUnderspeed,0.6
;   solidInfillUnderspeed,1
;   supportUnderspeed,0.8
;   rapidXYspeed,12000
;   rapidZspeed,1002
;   minBridgingArea,5
;   bridgingExtraInflation,2
;   bridgingExtrusionMultiplier,1
;   bridgingSpeedMultiplier,1
;   useFixedBridgingAngle,0
;   fixedBridgingAngle,0
;   applyBridgingToPerimeters,0
;   filamentDiameters,1.75|1.75|1.75|1.75|1.75|1.75
;   filamentPricesPerKg,250|46|46|46|46|46
;   filamentDensities,1.25|1.25|1.25|1.25|1.25|1.25
;   useMinPrintHeight,0
;   minPrintHeight,0.2
;   useMaxPrintHeight,0
;   maxPrintHeight,0.2
;   useDiaphragm,0
;   diaphragmLayerInterval,20
;   robustSlicing,1
;   mergeAllIntoSolid,0
;   onlyRetractWhenCrossingOutline,1
;   retractBetweenLayers,1
;   useRetractionMinTravel,0
;   retractionMinTravel,3
;   retractWhileWiping,0
;   onlyWipeOutlines,1
;   avoidCrossingOutline,0
;   maxMovementDetourFactor,3
;   toolChangeRetractionDistance,12
;   toolChangeExtraRestartDistance,-0.5
;   toolChangeRetractionSpeed,600
;   externalThinWallType,1
;   internalThinWallType,1
;   thinWallAllowedOverlapPercentage,10
;   singleExtrusionMinLength,1
;   singleExtrusionMinPrintingWidthPercentage,50
;   singleExtrusionMaxPrintingWidthPercentage,200
;   singleExtrusionEndpointExtension,0.2
;   horizontalSizeCompensation,0
G90
M82
M106 S0
M140 S60
M190 S60
M104 S220 T0
M109 S220 T0
G28 ; home all axes
G1 Z5 F3000 ; lift
G1 X5 Y10 F1500 ; move to prime
G1 Z0.4 F3000 ; get ready to prime
G92 E0 ; reset extrusion distance
G1 Y80 E10 F600 ; prime nozzle
G1 Y100 F5000 ; quick wipe
G92 E0
G1 E-1.0000 F2400
G1 Z0.600 F1002
; process Process1
; layer 1, Z = 0.400
T0
; tool H0.400 W0.400
; skirt
G1 X118.047 Y137.491 F12000
G1 Z0.400 F1002
G1 E0.0000 F720
G92 E0
G1 X118.322 Y137.259 E0.0239 F1200
G1 X118.329 Y137.254 E0.0245
G1 X118.972 Y136.802 E0.0768
G1 X118.979 Y136.797 E0.0773
G1 X119.285 Y136.619 E0.1009
G1 X119.293 Y136.615 E0.1014
G1 X120.003 Y136.280 E0.1537
G1 X120.010 Y136.277 E0.1542
G1 X120.343 Y136.154 E0.1778
G1 X120.352 Y136.152 E0.1784
G1 X121.111 Y135.943 E0.2308
G1 X121.120 Y135.941 E0.2314
G1 X121.467 Y135.878 E0.2549
G1 X121.476 Y135.876 E0.2555
G1 X122.169 Y135.810 E0.3018
G1 X122.174 Y135.810 E0.3021
G1 X122.369 Y135.801 E0.3151
G1 X122.373 Y135.801 E0.3154
G1 X177.588 Y135.800 E3.9883
G1 X177.593 Y135.800 E3.9886
G1 X177.769 Y135.808 E4.0004
G1 X177.774 Y135.808 E4.0007
G1 X178.506 Y135.871 E4.0496
G1 X178.517 Y135.873 E4.0503
G1 X178.951 Y135.958 E4.0797
G1 X178.961 Y135.961 E4.0804
G1 X179.966 Y136.273 E4.1504
G1 X179.974 Y136.276 E4.1510
G1 X180.305 Y136.412 E4.1748
G1 X180.313 Y136.416 E4.1754
G1 X180.786 Y136.659 E4.2107
G1 X180.791 Y136.662 E4.2112
G1 X181.021 Y136.801 E4.2290
G1 X181.027 Y136.804 E4.2295
G1 X181.642 Y137.231 E4.2793
G1 X181.649 Y137.237 E4.2798
G1 X181.924 Y137.466 E4.3037
G1 X181.930 Y137.472 E4.3042
G1 X182.494 Y138.031 E4.3570
G1 X182.500 Y138.037 E4.3576
G1 X182.731 Y138.310 E4.3814
G1 X182.736 Y138.317 E4.3820
G1 X183.194 Y138.966 E4.4348
G1 X183.199 Y138.973 E4.4354
G1 X183.379 Y139.282 E4.4592
G1 X183.383 Y139.290 E4.4598
G1 X183.721 Y140.008 E4.5126
G1 X183.725 Y140.016 E4.5132
G1 X183.848 Y140.352 E4.5370
G1 X183.851 Y140.360 E4.5376
G1 X184.060 Y141.126 E4.5904
G1 X184.061 Y141.135 E4.5909
G1 X184.125 Y141.487 E4.6148
G1 X184.126 Y141.496 E4.6153
G1 X184.191 Y142.201 E4.6625
G1 X184.191 Y142.206 E4.6628
G1 X184.199 Y142.392 E4.6752
G1 X184.200 Y142.397 E4.6755
G1 X184.200 Y157.588 E5.6860
G1 X184.200 Y157.593 E5.6863
G1 X184.192 Y157.769 E5.6981
G1 X184.192 Y157.774 E5.6984
G1 X184.129 Y158.506 E5.7473
G1 X184.127 Y158.517 E5.7480
G1 X184.042 Y158.951 E5.7774
G1 X184.039 Y158.961 E5.7781
G1 X183.713 Y160.009 E5.8511
G1 X183.710 Y160.019 E5.8518
G1 X183.531 Y160.429 E5.8816
G1 X183.526 Y160.439 E5.8823
G1 X183.110 Y161.167 E5.9381
G1 X183.105 Y161.174 E5.9387
G1 X182.901 Y161.469 E5.9625
G1 X182.895 Y161.475 E5.9631
G1 X182.388 Y162.085 E6.0159
G1 X182.382 Y162.092 E6.0165
G1 X182.130 Y162.346 E6.0403
G1 X182.123 Y162.352 E6.0409
G1 X181.517 Y162.864 E6.0937
G1 X181.510 Y162.870 E6.0942
G1 X181.218 Y163.076 E6.1181
G1 X181.210 Y163.081 E6.1186
G1 X180.524 Y163.481 E6.1714
G1 X180.517 Y163.485 E6.1720
G1 X180.193 Y163.637 E6.1958
G1 X180.185 Y163.641 E6.1964
G1 X179.398 Y163.930 E6.2522
G1 X179.388 Y163.934 E6.2529
G1 X178.953 Y164.042 E6.2827
G1 X178.942 Y164.044 E6.2834
G1 X177.937 Y164.180 E6.3509
G1 X177.930 Y164.181 E6.3514
G1 X177.655 Y164.199 E6.3697
G1 X177.648 Y164.200 E6.3702
G1 X122.366 Y164.200 E10.0476
G1 X122.359 Y164.200 E10.0480
G1 X122.091 Y164.182 E10.0659
G1 X122.085 Y164.182 E10.0663
G1 X121.084 Y164.050 E10.1335
G1 X121.073 Y164.048 E10.1342
G1 X120.640 Y163.942 E10.1638
G1 X120.630 Y163.939 E10.1646
G1 X119.812 Y163.642 E10.2224
G1 X119.802 Y163.638 E10.2231
G1 X119.406 Y163.444 E10.2525
G1 X119.396 Y163.438 E10.2532
G1 X118.431 Y162.828 E10.3292
G1 X118.420 Y162.821 E10.3301
G1 X118.007 Y162.477 E10.3658
G1 X117.997 Y162.468 E10.3667
G1 X117.221 Y161.627 E10.4429
G1 X117.214 Y161.618 E10.4436
G1 X116.948 Y161.258 E10.4734
G1 X116.942 Y161.249 E10.4741
G1 X116.519 Y160.524 E10.5299
G1 X116.515 Y160.517 E10.5305
G1 X116.363 Y160.193 E10.5543
G1 X116.359 Y160.185 E10.5549
G1 X116.070 Y159.398 E10.6106
G1 X116.066 Y159.388 E10.6114
G1 X115.958 Y158.953 E10.6412
G1 X115.956 Y158.942 E10.6419
G1 X115.820 Y157.936 E10.7094
G1 X115.819 Y157.930 E10.7099
G1 X115.801 Y157.652 E10.7283
G1 X115.800 Y157.646 E10.7288
G1 X115.811 Y142.034 E11.7673
G1 X115.812 Y142.023 E11.7680
G1 X115.863 Y141.571 E11.7983
G1 X115.865 Y141.560 E11.7990
G1 X116.104 Y140.500 E11.8713
G1 X116.107 Y140.489 E11.8721
G1 X116.250 Y140.073 E11.9013
G1 X116.254 Y140.063 E11.9020
G1 X116.604 Y139.314 E11.9571
G1 X116.608 Y139.306 E11.9576
G1 X116.785 Y139.000 E11.9812
G1 X116.789 Y138.992 E11.9817
G1 X117.239 Y138.348 E12.0340
G1 X117.244 Y138.341 E12.0346
G1 X117.472 Y138.068 E12.0582
G1 X117.478 Y138.062 E12.0588
G1 X118.041 Y137.497 E12.1119
G1 X118.047 Y137.491 E12.1124
G92 E0
G1 E-1.0000 F2400
G1 Z0.600 F1002
; inner perimeter
G1 X121.797 Y141.661 F12000
G1 Z0.400 F1002
G1 E0.0000 F2400
G92 E0
G1 X121.950 Y141.554 E0.0124 F960
G1 X122.120 Y141.473 E0.0249
G1 X122.304 Y141.423 E0.0376
G1 X122.538 Y141.401 E0.0532
G1 X160.600 Y141.400 E2.5852
G1 X160.600 Y149.400 E3.1173
G1 X166.400 Y149.400 E3.5031
G1 X166.400 Y141.400 E4.0353
G1 X171.600 Y141.400 E4.3812
G1 X171.600 Y149.400 E4.9133
G1 X177.400 Y149.400 E5.2992
G1 X177.400 Y141.397 E5.8315
G1 X177.714 Y141.424 E5.8525
G1 X177.750 Y141.432 E5.8550
G1 X177.987 Y141.517 E5.8717
G1 X178.018 Y141.533 E5.8740
G1 X178.200 Y141.659 E5.8888
G1 X178.336 Y141.793 E5.9015
G1 X178.446 Y141.949 E5.9142
G1 X178.527 Y142.122 E5.9268
G1 X178.585 Y142.335 E5.9416
G1 X178.594 Y142.400 E5.9459
G1 X178.600 Y142.524 E5.9541
G1 X178.600 Y157.440 E6.9464
G1 X178.576 Y157.714 E6.9647
G1 X178.568 Y157.750 E6.9671
G1 X178.493 Y157.959 E6.9819
G1 X178.399 Y158.124 E6.9946
G1 X178.277 Y158.271 E7.0073
G1 X178.131 Y158.394 E7.0199
G1 X177.966 Y158.490 E7.0326
G1 X177.758 Y158.566 E7.0474
G1 X177.725 Y158.574 E7.0497
G1 X177.400 Y158.604 E7.0714
G1 X177.400 Y150.600 E7.6038
G1 X171.600 Y150.600 E7.9896
G1 X171.600 Y158.600 E8.5217
G1 X166.400 Y158.600 E8.8676
G1 X166.400 Y150.600 E9.3998
G1 X160.600 Y150.600 E9.7856
G1 X160.600 Y158.600 E10.3177
G1 X122.560 Y158.600 E12.8481
G1 X122.286 Y158.576 E12.8665
G1 X122.242 Y158.567 E12.8694
G1 X122.043 Y158.494 E12.8835
G1 X121.849 Y158.383 E12.8984
G1 X121.822 Y158.363 E12.9007
G1 X121.643 Y158.185 E12.9175
G1 X121.622 Y158.158 E12.9198
G1 X121.510 Y157.966 E12.9345
G1 X121.444 Y157.787 E12.9472
G1 X121.405 Y157.569 E12.9619
G1 X121.400 Y157.476 E12.9681
G1 X121.401 Y142.507 E13.9639
G1 X121.405 Y142.426 E13.9692
G1 X121.448 Y142.185 E13.9855
G1 X121.459 Y142.152 E13.9879
G1 X121.552 Y141.953 E14.0024
G1 X121.659 Y141.799 E14.0149
G1 X121.797 Y141.661 E14.0279
G1 X121.538 Y141.354 F12000
G92 E0
G1 X121.748 Y141.207 E0.0170 F960
G1 X121.981 Y141.097 E0.0342
G1 X122.232 Y141.028 E0.0515
G1 X122.519 Y141.001 E0.0706
G1 X177.457 Y141.000 E3.7252
G1 X177.774 Y141.027 E3.7464
G1 X177.861 Y141.046 E3.7522
G1 X178.148 Y141.149 E3.7725
G1 X178.225 Y141.189 E3.7783
G1 X178.457 Y141.350 E3.7971
G1 X178.642 Y141.534 E3.8144
G1 X178.792 Y141.747 E3.8318
G1 X178.904 Y141.983 E3.8491
G1 X178.978 Y142.256 E3.8679
G1 X178.992 Y142.364 E3.8752
G1 X179.000 Y142.514 E3.8852
G1 X179.000 Y157.457 E4.8792
G1 X178.973 Y157.774 E4.9004
G1 X178.954 Y157.861 E4.9063
G1 X178.858 Y158.127 E4.9251
G1 X178.729 Y158.353 E4.9424
G1 X178.562 Y158.554 E4.9598
G1 X178.363 Y158.722 E4.9771
G1 X178.137 Y158.853 E4.9945
G1 X177.872 Y158.951 E5.0133
G1 X177.787 Y158.970 E5.0190
G1 X177.464 Y159.000 E5.0406
G1 X122.543 Y159.000 E8.6940
G1 X122.226 Y158.973 E8.7152
G1 X122.131 Y158.952 E8.7216
G1 X121.874 Y158.859 E8.7398
G1 X121.628 Y158.718 E8.7587
G1 X121.559 Y158.665 E8.7645
G1 X121.342 Y158.450 E8.7847
G1 X121.289 Y158.382 E8.7905
G1 X121.147 Y158.137 E8.8093
G1 X121.057 Y157.893 E8.8267
G1 X121.007 Y157.615 E8.8455
G1 X121.000 Y157.486 E8.8540
G1 X121.001 Y142.496 E9.8511
G1 X121.007 Y142.380 E9.8589
G1 X121.060 Y142.088 E9.8786
G1 X121.086 Y142.006 E9.8844
G1 X121.204 Y141.753 E9.9030
G1 X121.351 Y141.542 E9.9201
G1 X121.538 Y141.354 E9.9377
G1 X121.280 Y141.047 F12000
G92 E0
G1 X121.546 Y140.859 E0.0217 F960
G1 X121.841 Y140.720 E0.0434
G1 X122.159 Y140.633 E0.0653
G1 X122.500 Y140.601 E0.0881
G1 X177.474 Y140.600 E3.7450
G1 X177.835 Y140.631 E3.7690
G1 X177.972 Y140.661 E3.7784
G1 X178.308 Y140.782 E3.8021
G1 X178.431 Y140.846 E3.8114
G1 X178.714 Y141.042 E3.8343
G1 X178.949 Y141.275 E3.8563
G1 X179.139 Y141.545 E3.8783
G1 X179.280 Y141.844 E3.9003
G1 X179.371 Y142.176 E3.9231
G1 X179.391 Y142.327 E3.9333
G1 X179.400 Y142.505 E3.9451
G1 X179.400 Y157.474 E4.9409
G1 X179.369 Y157.835 E4.9649
G1 X179.339 Y157.971 E4.9743
G1 X179.223 Y158.295 E4.9972
G1 X179.058 Y158.582 E5.0192
G1 X178.847 Y158.836 E5.0412
G1 X178.594 Y159.050 E5.0631
G1 X178.308 Y159.216 E5.0852
G1 X177.986 Y159.335 E5.1080
G1 X177.850 Y159.366 E5.1173
G1 X177.482 Y159.400 E5.1418
G1 X122.526 Y159.400 E8.7976
G1 X122.166 Y159.369 E8.8216
G1 X122.020 Y159.337 E8.8315
G1 X121.706 Y159.223 E8.8538
G1 X121.406 Y159.052 E8.8767
G1 X121.295 Y158.967 E8.8860
G1 X121.042 Y158.716 E8.9097
G1 X120.957 Y158.606 E8.9190
G1 X120.784 Y158.308 E8.9419
G1 X120.669 Y157.998 E8.9639
G1 X120.608 Y157.660 E8.9868
G1 X120.600 Y157.495 E8.9977
G1 X120.601 Y142.486 E9.9961
G1 X120.608 Y142.334 E10.0063
G1 X120.671 Y141.992 E10.0294
G1 X120.712 Y141.860 E10.0386
G1 X120.856 Y141.552 E10.0612
G1 X121.043 Y141.285 E10.0829
G1 X121.280 Y141.047 E10.1052
; outer perimeter
G1 X121.021 Y140.740 F12000
G92 E0
G1 X121.344 Y140.512 E0.0263 F720
G1 X121.702 Y140.344 E0.0526
G1 X122.087 Y140.238 E0.0792
G1 X122.481 Y140.201 E0.1055
G1 X177.491 Y140.200 E3.7648
G1 X177.894 Y140.235 E3.7917
G1 X178.082 Y140.276 E3.8045
G1 X178.468 Y140.414 E3.8317
G1 X178.638 Y140.502 E3.8445
G1 X178.971 Y140.733 E3.8715
G1 X179.255 Y141.016 E3.8981
G1 X179.486 Y141.343 E3.9248
G1 X179.657 Y141.705 E3.9514
G1 X179.763 Y142.096 E3.9784
G1 X179.790 Y142.291 E3.9914
G1 X179.800 Y142.495 E4.0050
G1 X179.800 Y157.491 E5.0026
G1 X179.765 Y157.894 E5.0295
G1 X179.724 Y158.082 E5.0423
G1 X179.587 Y158.463 E5.0692
G1 X179.388 Y158.811 E5.0959
G1 X179.132 Y159.119 E5.1225
G1 X178.826 Y159.378 E5.1492
G1 X178.480 Y159.580 E5.1758
G1 X178.099 Y159.720 E5.2028
G1 X177.912 Y159.762 E5.2156
G1 X177.501 Y159.800 E5.2431
G1 X122.509 Y159.800 E8.9011
G1 X122.105 Y159.765 E8.9281
G1 X121.909 Y159.722 E8.9415
G1 X121.537 Y159.587 E8.9678
