; G-Code generated by Simplify3D(R) Version 4.0.1
; Oct 19, 2018 at 6:49:24 PM
; Settings Summary
;   processName,Process1
;   applyToModels,Fanduct_Titan_Aero_for_CR-10
;   profileName,Creality CR-10 (modified)
;   profileVersion,2018-01-19 08:00:00
;   baseProfile,
;   printMaterial,PLA
;   printQuality,High
;   printExtruders,
;   extruderName,Primary Extruder
;   extruderToolheadNumber,0
;   extruderDiameter,0.4
;   extruderAutoWidth,0
;   extruderWidth,0.4
;   extrusionMultiplier,0.9
;   extruderUseRetract,1
;   extruderRetractionDistance,5
;   extruderExtraRestartDistance,0
;   extruderRetractionZLift,0.2
;   extruderRetractionSpeed,1800
;   extruderUseCoasting,1
;   extruderCoastingDistance,0.2
;   extruderUseWipe,0
;   extruderWipeDistance,5
;   primaryExtruder,0
;   layerHeight,0.2
;   topSolidLayers,6
;   bottomSolidLayers,4
;   perimeterOutlines,5
;   printPerimetersInsideOut,1
;   startPointOption,2
;   startPointOriginX,0
;   startPointOriginY,0
;   sequentialIslands,0
;   spiralVaseMode,0
;   firstLayerHeightPercentage,200
;   firstLayerWidthPercentage,100
;   firstLayerUnderspeed,0.2
;   useRaft,0
;   raftExtruder,0
;   raftTopLayers,3
;   raftBaseLayers,1
;   raftOffset,10
;   raftSeparationDistance,0.1
;   raftTopInfill,100
;   aboveRaftSpeedMultiplier,0.3
;   useSkirt,1
;   skirtExtruder,0
;   skirtLayers,1
;   skirtOutlines,13
;   skirtOffset,0
;   usePrimePillar,0
;   primePillarExtruder,999
;   primePillarWidth,12
;   primePillarLocation,7
;   primePillarSpeedMultiplier,1
;   useOozeShield,0
;   oozeShieldExtruder,999
;   oozeShieldOffset,2
;   oozeShieldOutlines,1
;   oozeShieldSidewallShape,1
;   oozeShieldSidewallAngle,30
;   oozeShieldSpeedMultiplier,1
;   infillExtruder,0
;   internalInfillPattern,Rectilinear
;   externalInfillPattern,Rectilinear
;   infillPercentage,25
;   outlineOverlapPercentage,20
;   infillExtrusionWidthPercentage,100
;   minInfillLength,5
;   infillLayerInterval,1
;   internalInfillAngles,45,-45
;   overlapInternalInfillAngles,1
;   externalInfillAngles,45,-45
;   generateSupport,0
;   supportExtruder,0
;   supportInfillPercentage,20
;   supportExtraInflation,0
;   supportBaseLayers,0
;   denseSupportExtruder,0
;   denseSupportLayers,3
;   denseSupportInfillPercentage,70
;   supportLayerInterval,1
;   supportHorizontalPartOffset,0.3
;   supportUpperSeparationLayers,1
;   supportLowerSeparationLayers,1
;   supportType,0
;   supportGridSpacing,4
;   maxOverhangAngle,46
;   supportAngles,0
;   temperatureName,Primary Extruder,Heated Bed
;   temperatureNumber,0,0
;   temperatureSetpointCount,1,1
;   temperatureSetpointLayers,1,1
;   temperatureSetpointTemperatures,260,70
;   temperatureStabilizeAtStartup,1,1
;   temperatureHeatedBed,0,1
;   temperatureRelayBetweenLayers,0,0
;   temperatureRelayBetweenLoops,0,0
;   fanLayers,1,3
;   fanSpeeds,0,100
;   blipFanToFullPower,0
;   adjustSpeedForCooling,1
;   minSpeedLayerTime,8
;   minCoolingSpeedSlowdown,20
;   increaseFanForCooling,0
;   minFanLayerTime,45
;   maxCoolingFanSpeed,100
;   increaseFanForBridging,0
;   bridgingFanSpeed,100
;   use5D,1
;   relativeEdistances,0
;   allowEaxisZeroing,1
;   independentExtruderAxes,0
;   includeM10123,0
;   stickySupport,1
;   applyToolheadOffsets,0
;   gcodeXoffset,0
;   gcodeYoffset,0
;   gcodeZoffset,0
;   overrideMachineDefinition,1
;   machineTypeOverride,0
;   strokeXoverride,300
;   strokeYoverride,300
;   strokeZoverride,400
;   originOffsetXoverride,0
;   originOffsetYoverride,0
;   originOffsetZoverride,0
;   homeXdirOverride,-1
;   homeYdirOverride,-1
;   homeZdirOverride,-1
;   flipXoverride,1
;   flipYoverride,-1
;   flipZoverride,1
;   toolheadOffsets,0,0|0,0|0,0|0,0|0,0|0,0
;   overrideFirmwareConfiguration,1
;   firmwareTypeOverride,RepRap (Marlin/Repetier/Sprinter)
;   GPXconfigOverride,r2
;   baudRateOverride,115200
;   overridePrinterModels,1
;   printerModelsOverride
;   startingGcode,G28 ; home all axes,G1 Z5 F3000 ; lift,G1 X5 Y10 F1500 ; move to prime,G1 Z0.4 F3000 ; get ready to prime,G92 E0 ; reset extrusion distance,G1 Y80 E10 F600 ; prime nozzle,G1 Y100 F5000 ; quick wipe
;   layerChangeGcode,
;   retractionGcode,
;   toolChangeGcode,
;   endingGcode,G28 X0 ; home x axis,M106 S0 ; turn off cooling fan,M104 S0 ; turn off extruder,M140 S0 ; turn off bed,M84 ; disable motors
;   exportFileFormat,gcode
;   celebration,0
;   celebrationSong,Random Song
;   postProcessing,
;   defaultSpeed,3600
;   outlineUnderspeed,0.5
;   solidInfillUnderspeed,1
;   supportUnderspeed,0.8
;   rapidXYspeed,12000
;   rapidZspeed,1002
;   minBridgingArea,5
;   bridgingExtraInflation,2
;   bridgingExtrusionMultiplier,1
;   bridgingSpeedMultiplier,1
;   useFixedBridgingAngle,0
;   fixedBridgingAngle,0
;   applyBridgingToPerimeters,0
;   filamentDiameters,1.75|1.75|1.75|1.75|1.75|1.75
;   filamentPricesPerKg,250|46|46|46|46|46
;   filamentDensities,1.25|1.25|1.25|1.25|1.25|1.25
;   useMinPrintHeight,0
;   minPrintHeight,0.2
;   useMaxPrintHeight,0
;   maxPrintHeight,0.2
;   useDiaphragm,0
;   diaphragmLayerInterval,20
;   robustSlicing,1
;   mergeAllIntoSolid,0
;   onlyRetractWhenCrossingOutline,1
;   retractBetweenLayers,1
;   useRetractionMinTravel,0
;   retractionMinTravel,3
;   retractWhileWiping,0
;   onlyWipeOutlines,1
;   avoidCrossingOutline,0
;   maxMovementDetourFactor,3
;   toolChangeRetractionDistance,12
;   toolChangeExtraRestartDistance,-0.5
;   toolChangeRetractionSpeed,600
;   externalThinWallType,1
;   internalThinWallType,1
;   thinWallAllowedOverlapPercentage,10
;   singleExtrusionMinLength,1
;   singleExtrusionMinPrintingWidthPercentage,50
;   singleExtrusionMaxPrintingWidthPercentage,200
;   singleExtrusionEndpointExtension,0.2
;   horizontalSizeCompensation,0
G90
M82
M106 S0
M140 S70
M190 S70
M104 S260 T0
M109 S260 T0
G28 ; home all axes
G1 Z5 F3000 ; lift
G1 X5 Y10 F1500 ; move to prime
G1 Z0.4 F3000 ; get ready to prime
G92 E0 ; reset extrusion distance
G1 Y80 E10 F600 ; prime nozzle
G1 Y100 F5000 ; quick wipe
G92 E0
G1 E-5.0000 F1800
G1 Z0.600 F1002
; process Process1
; layer 1, Z = 0.400
T0
; tool H0.400 W0.400
; skirt
G1 X131.925 Y139.559 F12000
G1 Z0.400 F1002
G1 E0.0000 F540
G92 E0
G1 X132.312 Y139.216 E0.0310 F720
G1 X132.937 Y138.770 E0.0769
G1 X133.483 Y138.474 E0.1141
G1 X134.430 Y138.105 E0.1750
G1 X135.032 Y137.952 E0.2121
G1 X135.691 Y137.870 E0.2519
G1 X136.000 Y137.851 E0.2704
G1 X163.920 Y137.849 E1.9420
G1 X164.165 Y137.861 E1.9567
G1 X164.858 Y137.930 E1.9984
G1 X165.516 Y138.086 E2.0388
G1 X166.587 Y138.499 E2.1076
G1 X167.278 Y138.902 E2.1554
G1 X168.073 Y139.554 E2.2170
G1 X168.459 Y139.950 E2.2501
G1 X168.908 Y140.525 E2.2938
G1 X169.198 Y140.996 E2.3269
G1 X169.624 Y141.898 E2.3866
G1 X169.838 Y142.604 E2.4308
G1 X169.970 Y143.499 E2.4850
G1 X169.997 Y143.866 E2.5070
G1 X169.998 Y149.654 E2.8535
G1 X169.990 Y149.845 E2.8649
G1 X169.937 Y150.549 E2.9072
G1 X169.840 Y151.071 E2.9390
G1 X169.627 Y151.789 E2.9838
G1 X169.394 Y152.330 E3.0191
G1 X168.845 Y153.280 E3.0848
G1 X168.300 Y153.935 E3.1358
G1 X167.319 Y154.773 E3.2130
G1 X166.586 Y155.208 E3.2641
G1 X165.562 Y155.601 E3.3297
G1 X164.991 Y155.746 E3.3650
G1 X164.350 Y155.830 E3.4037
G1 X164.023 Y155.852 E3.4233
G1 X136.077 Y155.851 E5.0964
G1 X135.816 Y155.837 E5.1120
G1 X135.111 Y155.764 E5.1545
G1 X134.476 Y155.612 E5.1936
G1 X133.483 Y155.232 E5.2572
G1 X132.855 Y154.881 E5.3003
G1 X132.115 Y154.315 E5.3561
G1 X131.740 Y153.962 E5.3869
G1 X131.265 Y153.411 E5.4304
G1 X130.937 Y152.926 E5.4655
G1 X130.442 Y151.971 E5.5299
G1 X130.191 Y151.212 E5.5777
G1 X130.036 Y150.246 E5.6363
G1 X130.005 Y149.845 E5.6604
G1 X130.014 Y143.639 E6.0320
G1 X130.067 Y143.129 E6.0626
G1 X130.224 Y142.381 E6.1084
G1 X130.425 Y141.793 E6.1456
G1 X130.894 Y140.833 E6.2096
G1 X131.303 Y140.234 E6.2530
G1 X131.789 Y139.706 E6.2960
G1 X131.925 Y139.559 F720
G1 X132.205 Y139.845 F12000
G92 E0
G1 X132.561 Y139.530 E0.0285 F720
G1 X133.149 Y139.110 E0.0717
G1 X133.651 Y138.838 E0.1059
G1 X134.552 Y138.487 E0.1638
G1 X135.106 Y138.346 E0.1980
G1 X135.728 Y138.269 E0.2355
G1 X136.012 Y138.251 E0.2526
G1 X163.910 Y138.249 E1.9228
G1 X164.136 Y138.260 E1.9363
G1 X164.792 Y138.325 E1.9758
G1 X165.397 Y138.469 E2.0130
G1 X166.413 Y138.861 E2.0782
G1 X167.049 Y139.231 E2.1223
G1 X167.802 Y139.850 E2.1806
G1 X168.157 Y140.214 E2.2111
G1 X168.579 Y140.754 E2.2521
G1 X168.846 Y141.187 E2.2826
G1 X169.250 Y142.043 E2.3392
G1 X169.447 Y142.692 E2.3798
G1 X169.573 Y143.543 E2.4313
G1 X169.597 Y143.880 E2.4516
G1 X169.598 Y149.646 E2.7967
G1 X169.591 Y149.822 E2.8073
G1 X169.539 Y150.498 E2.8479
G1 X169.451 Y150.978 E2.8771
G1 X169.251 Y151.652 E2.9192
G1 X169.036 Y152.151 E2.9517
G1 X168.516 Y153.050 E3.0139
G1 X168.014 Y153.653 E3.0609
G1 X167.085 Y154.446 E3.1340
G1 X166.411 Y154.847 E3.1810
G1 X165.441 Y155.219 E3.2432
G1 X164.915 Y155.353 E3.2756
G1 X164.310 Y155.432 E3.3122
G1 X164.010 Y155.452 E3.3302
G1 X136.087 Y155.451 E5.0019
G1 X135.847 Y155.439 E5.0162
G1 X135.179 Y155.369 E5.0565
G1 X134.595 Y155.229 E5.0925
G1 X133.653 Y154.868 E5.1528
G1 X133.075 Y154.546 E5.1924
G1 X132.375 Y154.010 E5.2452
G1 X132.030 Y153.685 E5.2736
G1 X131.583 Y153.168 E5.3145
G1 X131.281 Y152.722 E5.3468
G1 X130.812 Y151.816 E5.4079
G1 X130.581 Y151.117 E5.4519
G1 X130.434 Y150.198 E5.5076
G1 X130.405 Y149.830 E5.5297
G1 X130.414 Y143.660 E5.8991
G1 X130.463 Y143.191 E5.9273
G1 X130.610 Y142.487 E5.9704
G1 X130.796 Y141.946 E6.0046
G1 X131.241 Y141.035 E6.0653
G1 X131.617 Y140.484 E6.1053
G1 X132.069 Y139.992 E6.1453
G1 X132.205 Y139.845 F720
G1 X132.485 Y140.131 F12000
G92 E0
G1 X132.811 Y139.843 E0.0260 F720
G1 X133.361 Y139.450 E0.0665
G1 X133.820 Y139.202 E0.0977
G1 X134.674 Y138.868 E0.1526
G1 X135.180 Y138.740 E0.1839
G1 X135.765 Y138.667 E0.2192
G1 X136.025 Y138.651 E0.2348
G1 X163.900 Y138.649 E1.9036
G1 X164.107 Y138.659 E1.9160
G1 X164.726 Y138.720 E1.9532
G1 X165.279 Y138.852 E1.9872
G1 X166.240 Y139.222 E2.0489
G1 X166.820 Y139.561 E2.0891
G1 X167.531 Y140.145 E2.1442
G1 X167.855 Y140.477 E2.1720
G1 X168.250 Y140.983 E2.2104
G1 X168.493 Y141.378 E2.2382
G1 X168.876 Y142.187 E2.2918
G1 X169.055 Y142.780 E2.3289
G1 X169.175 Y143.587 E2.3777
G1 X169.197 Y143.895 E2.3962
G1 X169.198 Y149.638 E2.7400
G1 X169.192 Y149.799 E2.7497
G1 X169.142 Y150.446 E2.7885
G1 X169.061 Y150.884 E2.8152
G1 X168.874 Y151.516 E2.8546
G1 X168.678 Y151.971 E2.8843
G1 X168.187 Y152.820 E2.9430
G1 X167.729 Y153.371 E2.9859
G1 X166.851 Y154.120 E3.0550
G1 X166.236 Y154.486 E3.0979
G1 X165.320 Y154.837 E3.1566
G1 X164.840 Y154.959 E3.1862
G1 X164.271 Y155.034 E3.2206
G1 X163.997 Y155.052 E3.2370
G1 X136.098 Y155.051 E4.9073
G1 X135.879 Y155.040 E4.9204
G1 X135.247 Y154.973 E4.9585
G1 X134.713 Y154.846 E4.9913
G1 X133.823 Y154.505 E5.0484
G1 X133.295 Y154.210 E5.0846
G1 X132.634 Y153.705 E5.1344
G1 X132.319 Y153.408 E5.1603
G1 X131.901 Y152.924 E5.1986
G1 X131.626 Y152.517 E5.2280
G1 X131.182 Y151.660 E5.2858
G1 X130.971 Y151.022 E5.3260
G1 X130.831 Y150.151 E5.3788
G1 X130.805 Y149.814 E5.3991
G1 X130.814 Y143.681 E5.7663
G1 X130.859 Y143.253 E5.7920
G1 X130.997 Y142.593 E5.8324
G1 X131.166 Y142.100 E5.8636
G1 X131.587 Y141.236 E5.9211
G1 X131.931 Y140.733 E5.9576
G1 X132.350 Y140.278 E5.9946
G1 X132.485 Y140.131 F720
G1 X132.766 Y140.417 F12000
G92 E0
G1 X133.060 Y140.157 E0.0235 F720
G1 X133.573 Y139.790 E0.0613
G1 X133.989 Y139.565 E0.0896
G1 X134.797 Y139.250 E0.1415
G1 X135.254 Y139.134 E0.1698
G1 X135.802 Y139.066 E0.2028
G1 X136.037 Y139.051 E0.2169
G1 X163.891 Y139.049 E1.8844
G1 X164.077 Y139.058 E1.8956
G1 X164.660 Y139.116 E1.9307
G1 X165.160 Y139.235 E1.9614
G1 X166.066 Y139.584 E2.0196
G1 X166.591 Y139.890 E2.0560
G1 X167.260 Y140.440 E2.1078
G1 X167.554 Y140.741 E2.1330
G1 X167.921 Y141.211 E2.1687
G1 X168.141 Y141.569 E2.1939
G1 X168.501 Y142.331 E2.2443
G1 X168.664 Y142.868 E2.2779
G1 X168.777 Y143.631 E2.3241
G1 X168.797 Y143.910 E2.3408
G1 X168.798 Y149.631 E2.6833
G1 X168.792 Y149.776 E2.6920
G1 X168.745 Y150.394 E2.7292
G1 X168.672 Y150.791 E2.7533
G1 X168.497 Y151.379 E2.7901
G1 X168.320 Y151.791 E2.8169
G1 X167.858 Y152.591 E2.8722
G1 X167.443 Y153.089 E2.9110
G1 X166.618 Y153.793 E2.9760
G1 X166.061 Y154.125 E3.0148
G1 X165.198 Y154.455 E3.0700
G1 X164.764 Y154.566 E3.0969
G1 X164.232 Y154.636 E3.1290
G1 X163.984 Y154.652 E3.1439
G1 X136.108 Y154.651 E4.8127
G1 X135.910 Y154.641 E4.8246
G1 X135.315 Y154.578 E4.8605
G1 X134.832 Y154.463 E4.8902
G1 X133.993 Y154.142 E4.9440
G1 X133.515 Y153.875 E4.9767
G1 X132.893 Y153.400 E5.0236
G1 X132.608 Y153.131 E5.0470
G1 X132.219 Y152.680 E5.0827
G1 X131.970 Y152.312 E5.1093
G1 X131.551 Y151.504 E5.1638
G1 X131.361 Y150.928 E5.2001
G1 X131.229 Y150.103 E5.2501
G1 X131.205 Y149.799 E5.2684
G1 X131.214 Y143.702 E5.6334
G1 X131.255 Y143.315 E5.6567
G1 X131.383 Y142.699 E5.6943
G1 X131.536 Y142.253 E5.7226
G1 X131.934 Y141.438 E5.7769
G1 X132.245 Y140.983 E5.8099
G1 X132.630 Y140.564 E5.8440
G1 X132.766 Y140.417 F720
G1 X133.046 Y140.703 F12000
G92 E0
G1 X133.310 Y140.470 E0.0211 F720
G1 X133.786 Y140.130 E0.0561
G1 X134.157 Y139.929 E0.0814
G1 X134.919 Y139.632 E0.1303
G1 X135.328 Y139.528 E0.1556
G1 X135.839 Y139.464 E0.1864
G1 X136.050 Y139.451 E0.1991
G1 X163.881 Y139.449 E1.8653
G1 X164.048 Y139.457 E1.8753
G1 X164.594 Y139.511 E1.9081
G1 X165.041 Y139.617 E1.9356
G1 X165.892 Y139.946 E1.9903
G1 X166.362 Y140.220 E2.0228
G1 X166.989 Y140.735 E2.0714
G1 X167.252 Y141.004 E2.0939
G1 X167.592 Y141.440 E2.1270
G1 X167.789 Y141.760 E2.1495
G1 X168.127 Y142.475 E2.1969
G1 X168.273 Y142.955 E2.2269
G1 X168.379 Y143.675 E2.2705
G1 X168.397 Y143.925 E2.2855
G1 X168.398 Y149.623 E2.6266
G1 X168.393 Y149.753 E2.6344
G1 X168.348 Y150.343 E2.6698
G1 X168.282 Y150.697 E2.6914
G1 X168.120 Y151.243 E2.7255
G1 X167.962 Y151.611 E2.7495
G1 X167.528 Y152.361 E2.8013
G1 X167.158 Y152.807 E2.8360
G1 X166.384 Y153.467 E2.8969
G1 X165.886 Y153.763 E2.9316
G1 X165.077 Y154.073 E2.9835
G1 X164.689 Y154.172 E3.0075
G1 X164.193 Y154.237 E3.0374
G1 X163.971 Y154.252 E3.0507
G1 X136.119 Y154.251 E4.7182
G1 X135.941 Y154.242 E4.7288
G1 X135.382 Y154.183 E4.7625
G1 X134.950 Y154.080 E4.7891
G1 X134.163 Y153.779 E4.8396
G1 X133.735 Y153.540 E4.8689
G1 X133.153 Y153.094 E4.9128
G1 X132.898 Y152.854 E4.9337
G1 X132.537 Y152.437 E4.9668
G1 X132.314 Y152.107 E4.9906
G1 X131.921 Y151.349 E5.0417
G1 X131.751 Y150.833 E5.0743
G1 X131.626 Y150.056 E5.1214
G1 X131.605 Y149.783 E5.1377
G1 X131.614 Y143.723 E5.5005
G1 X131.650 Y143.377 E5.5214
G1 X131.770 Y142.806 E5.5563
G1 X131.907 Y142.406 E5.5816
G1 X132.281 Y141.640 E5.6327
G1 X132.559 Y141.232 E5.6622
G1 X132.911 Y140.850 E5.6933
G1 X133.046 Y140.703 F720
G1 X133.326 Y140.989 F12000
G92 E0
G1 X133.559 Y140.784 E0.0186 F720
G1 X133.998 Y140.470 E0.0509
G1 X134.326 Y140.292 E0.0732
G1 X135.041 Y140.013 E0.1192
G1 X135.402 Y139.922 E0.1415
G1 X135.876 Y139.863 E0.1701
G1 X136.062 Y139.851 E0.1812
G1 X163.871 Y139.849 E1.8461
G1 X164.018 Y139.856 E1.8549
G1 X164.528 Y139.907 E1.8856
G1 X164.922 Y140.000 E1.9098
G1 X165.718 Y140.307 E1.9609
G1 X166.133 Y140.549 E1.9896
G1 X166.719 Y141.030 E2.0350
G1 X166.950 Y141.268 E2.0549
G1 X167.263 Y141.668 E2.0853
G1 X167.437 Y141.951 E2.1052
G1 X167.753 Y142.620 E2.1495
G1 X167.881 Y143.043 E2.1760
G1 X167.981 Y143.719 E2.2169
G1 X167.997 Y143.939 E2.2301
G1 X167.998 Y149.615 E2.5699
G1 X167.993 Y149.730 E2.5768
G1 X167.950 Y150.291 E2.6104
G1 X167.893 Y150.604 E2.6295
G1 X167.744 Y151.107 E2.6609
G1 X167.604 Y151.432 E2.6821
G1 X167.199 Y152.131 E2.7305
G1 X166.872 Y152.525 E2.7611
G1 X166.150 Y153.141 E2.8179
G1 X165.710 Y153.402 E2.8485
G1 X164.956 Y153.692 E2.8969
G1 X164.613 Y153.779 E2.9181
G1 X164.154 Y153.839 E2.9458
G1 X163.958 Y153.852 E2.9576
G1 X136.129 Y153.851 E4.6236
G1 X135.973 Y153.843 E4.6330
G1 X135.450 Y153.788 E4.6645
G1 X135.069 Y153.697 E4.6880
G1 X134.333 Y153.415 E4.7351
G1 X133.955 Y153.205 E4.7610
G1 X133.412 Y152.789 E4.8020
G1 X133.187 Y152.577 E4.8205
G1 X132.856 Y152.193 E4.8508
G1 X132.659 Y151.902 E4.8719
G1 X132.291 Y151.193 E4.9197
G1 X132.141 Y150.738 E4.9484
